images/svg/github-icon.svg

<svg width="25" height="24" viewBox="0 0 25 24" fill="none" xmlns="http://www.w3.org/2000/svg">
<g id="akar-icons_github-fill">
<path id="Path" fill-rule="evenodd" clip-rule="evenodd" d="M12.3035 0C5.50583 0 0 5.50583 0 12.3035C0 17.7478 3.52188 22.3463 8.41254 23.9765C9.02771 24.0842 9.2584 23.715 9.2584 23.3921C9.2584 23.0999 9.24302 22.131 9.24302 21.1005C6.15176 21.6696 5.35203 20.347 5.10596 19.6549C4.96755 19.3012 4.36775 18.2092 3.84485 17.917C3.41423 17.6863 2.79905 17.1173 3.82947 17.1019C4.79838 17.0865 5.49045 17.9939 5.72114 18.363C6.82846 20.2239 8.59709 19.701 9.30454 19.3781C9.4122 18.5783 9.73516 18.04 10.0889 17.7325C7.35136 17.4249 4.49079 16.3637 4.49079 11.6576C4.49079 10.3196 4.96755 9.21227 5.7519 8.35102C5.62886 8.04343 5.19824 6.78232 5.87493 5.09058C5.87493 5.09058 6.90535 4.76762 9.2584 6.3517C10.2427 6.07487 11.2885 5.93645 12.3343 5.93645C13.3801 5.93645 14.4259 6.07487 15.4102 6.3517C17.7632 4.75224 18.7936 5.09058 18.7936 5.09058C19.4703 6.78232 19.0397 8.04343 18.9167 8.35102C19.701 9.21227 20.1778 10.3042 20.1778 11.6576C20.1778 16.3791 17.3018 17.4249 14.5643 17.7325C15.0103 18.1169 15.3948 18.8552 15.3948 20.0086C15.3948 21.6542 15.3794 22.9768 15.3794 23.3921C15.3794 23.715 15.6101 24.0995 16.2253 23.9765C18.6676 23.1519 20.79 21.5821 22.2936 19.4882C23.7972 17.3941 24.6063 14.8814 24.6071 12.3035C24.6071 5.50583 19.1012 0 12.3035 0Z" fill="white"/>
</g>
</svg>

<svg xmlns="http://www.w3.org/2000/svg" width="25" height="24" fill="none"><path fill="#fff" fill-rule="evenodd" d="M12.303 0C5.506 0 0 5.506 0 12.303c0 5.445 3.522 10.043 8.413 11.674.615.107.845-.262.845-.585 0-.292-.015-1.261-.015-2.291-3.091.569-3.891-.754-4.137-1.446-.138-.354-.738-1.446-1.261-1.738-.43-.23-1.046-.8-.016-.815.97-.015 1.661.892 1.892 1.261 1.107 1.86 2.876 1.338 3.584 1.015.107-.8.43-1.338.784-1.645-2.738-.308-5.598-1.37-5.598-6.075 0-1.338.477-2.446 1.26-3.307-.122-.308-.553-1.569.124-3.26 0 0 1.03-.323 3.383 1.26.985-.276 2.03-.415 3.076-.415 1.046 0 2.092.139 3.076.416 2.353-1.6 3.384-1.261 3.384-1.261.676 1.691.246 2.952.123 3.26.784.861 1.26 1.953 1.26 3.307 0 4.721-2.875 5.767-5.613 6.075.446.384.83 1.122.83 2.276 0 1.645-.015 2.968-.015 3.383 0 .323.231.707.846.585a12.325 12.325 0 0 0 8.382-11.674C24.607 5.506 19.101 0 12.304 0Z" clip-rule="evenodd"/></svg>
